packages/icons/svg/Various_Shutter_24px.svg

<svg xmlns="http://www.w3.org/2000/svg" viewBox="0 0 24 24"><path d="M20.5 2h-17A1.5 1.5 0 002 3.5V6a1.5 1.5 0 001.5 1.5H4v13A1.5 1.5 0 005.5 22h13a1.5 1.5 0 001.5-1.5v-13h.5A1.5 1.5 0 0022 6V3.5A1.5 1.5 0 0020.5 2zM6 16.5V15h12v1.5zM18 14H6v-1.5h12zm0-2.5H6V10h12zm-12 6h5V20H6zm7 2.5v-2.5h5V20zm5-11H6V7.5h12zm2-3.5H4V4h16z"/></svg>

<svg xmlns="http://www.w3.org/2000/svg" viewBox="0 0 24 24"><defs></defs><g id="Calque_5" ><path  d="M20.5,2H3.5A1.5,1.5,0,0,0,2,3.5V6A1.5,1.5,0,0,0,3.5,7.5H4v13A1.5,1.5,0,0,0,5.5,22h13A1.5,1.5,0,0,0,20,20.5V7.5h.5A1.5,1.5,0,0,0,22,6V3.5A1.5,1.5,0,0,0,20.5,2ZM6,16.5V15H18v1.5ZM18,14H6V12.5H18Zm0-2.5H6V10H18Zm-12,6h5V20H6ZM13,20V17.5h5V20ZM18,9H6V7.5H18Zm2-3.5H4V4H20Z"/></g></svg>
